X: 10143
T: Din Tarrant's
R: polka
M: 2/4
K: Gmajor
|:G>F GA|B>A Bd|G>B dB|AG ED|
G>F GA|B>A Bd|e/f/g fg|1 BG GB/A/:|2 BG Gd/c/||
|:Bd de/f/|gf ed|Bd de/f/|gB AG/A/|
Bd de/f/|gf ed|B/c/d B/c/d|1 BG Gd/c/:|2 BG GB/A/||

